src/components/Icon/utils/svgsOptimized/link.svg

<svg width="24" height="24" viewBox="0 0 24 24"  xmlns="http://www.w3.org/2000/svg">
<path d="M8.10501 14.55C7.00501 14.55 5.96501 13.64 5.75501 12.45C5.72501 12.3 5.70501 12.15 5.70501 12C5.70501 11.85 5.72501 11.69 5.75501 11.55C5.97501 10.36 7.00501 9.45 8.10501 9.45H9.87501C10.055 9.45 10.205 9.3 10.205 9.12V8.58C10.205 8.4 10.055 8.25 9.87501 8.25H8.06501C6.04501 8.25 4.30501 9.8 4.20501 11.81C4.09501 13.96 5.81501 15.75 7.94501 15.75H9.86501C10.045 15.75 10.195 15.6 10.195 15.42V14.88C10.195 14.7 10.045 14.55 9.86501 14.55H8.10501Z" />
<path d="M14.675 11.4H9.335C9.15275 11.4 9.005 11.5478 9.005 11.73V12.27C9.005 12.4523 9.15275 12.6 9.335 12.6H14.675C14.8573 12.6 15.005 12.4523 15.005 12.27V11.73C15.005 11.5478 14.8573 11.4 14.675 11.4Z" />
<path d="M18.255 12.45C18.045 13.64 17.005 14.55 15.905 14.55H14.135C13.955 14.55 13.805 14.7 13.805 14.88V15.42C13.805 15.6 13.955 15.75 14.135 15.75H16.055C18.185 15.75 19.905 13.96 19.795 11.81C19.695 9.8 17.965 8.25 15.945 8.25H14.135C13.955 8.25 13.805 8.4 13.805 8.58V9.12C13.805 9.3 13.955 9.45 14.135 9.45H15.905C17.005 9.45 18.035 10.36 18.255 11.55C18.285 11.69 18.305 11.84 18.305 12C18.305 12.15 18.285 12.3 18.255 12.45Z" />
</svg>

<?xml version="1.0" encoding="utf-8"?><svg width="24" height="24" xmlns="http://www.w3.org/2000/svg" viewBox="0 0 24 24"><path d="M8.105 14.55c-1.1 0-2.14-.91-2.35-2.1-.03-.15-.05-.3-.05-.45 0-.15.02-.31.05-.45.22-1.19 1.25-2.1 2.35-2.1h1.77c.18 0 .33-.15.33-.33v-.54c0-.18-.15-.33-.33-.33h-1.81c-2.02 0-3.76 1.55-3.86 3.56a3.75 3.75 0 0 0 3.74 3.94h1.92c.18 0 .33-.15.33-.33v-.54c0-.18-.15-.33-.33-.33h-1.76Z"/><path d="M14.675 11.4h-5.34a.33.33 0 0 0-.33.33v.54c0 .182.148.33.33.33h5.34a.33.33 0 0 0 .33-.33v-.54a.33.33 0 0 0-.33-.33Z"/><path d="M18.255 12.45c-.21 1.19-1.25 2.1-2.35 2.1h-1.77c-.18 0-.33.15-.33.33v.54c0 .18.15.33.33.33h1.92a3.75 3.75 0 0 0 3.74-3.94c-.1-2.01-1.83-3.56-3.85-3.56h-1.81c-.18 0-.33.15-.33.33v.54c0 .18.15.33.33.33h1.77c1.1 0 2.13.91 2.35 2.1.03.14.05.29.05.45 0 .15-.02.3-.05.45Z"/></svg>
